_site/images/verification-page/availability-icon.svg

<svg fill="none" height="30" viewBox="0 0 30 30" width="30" xmlns="http://www.w3.org/2000/svg"><rect fill="#00a0b6" height="30" rx="7" width="30"/><path clip-rule="evenodd" d="m21.7986 11.7739c.0255.0759.0429.1542.0519.2338v.0519 8.6566c0 1.4343-1.1627 2.597-2.5969 2.597h-8.6566c-1.43429 0-2.597-1.1627-2.597-2.597v-12.11922c0-1.43427 1.16271-2.59698 2.597-2.59698h5.2372c.1006.01242.1977.04479.2857.09522.0258-.00367.052-.00367.0779 0 .089.04162.1708.09714.2424.16448l5.1939 5.194c.0674.0715.1229.1533.1645.2423zm-2.9008-.5805-2.2421-2.24208v1.37638c0 .4781.3876.8657.8657.8657zm1.2209 9.5227c0 .478-.3876.8656-.8657.8656h-8.6566c-.4781 0-.86564-.3876-.86564-.8656v-12.11927c0-.47809.38754-.86566.86564-.86566h4.3283v2.59693c0 1.4343 1.1627 2.597 2.597 2.597h2.597zm-6.0601-2.9529 2.8481-2.8567c.3394-.3394.8898-.3394 1.2292 0 .3394.3395.3394.8898 0 1.2293l-3.4626 3.4626c-.1626.1639-.3838.256-.6147.256-.2308 0-.452-.0921-.6146-.256l-1.7313-1.7313c-.3394-.3395-.3394-.8898 0-1.2293.3395-.3394.8898-.3394 1.2292 0z" fill="#fff" fill-rule="evenodd"/></svg>

<svg width="30" height="30" viewBox="0 0 30 30" fill="none" xmlns="http://www.w3.org/2000/svg">
<rect width="30" height="30" rx="7" fill="#00A0B6"/>
<path fill-rule="evenodd" clip-rule="evenodd" d="M21.7986 11.7739C21.8241 11.8498 21.8415 11.9281 21.8505 12.0077V12.0596V20.7162C21.8505 22.1505 20.6878 23.3132 19.2536 23.3132H10.597C9.16271 23.3132 8 22.1505 8 20.7162V8.59698C8 7.16271 9.16271 6 10.597 6H15.8342C15.9348 6.01242 16.0319 6.04479 16.1199 6.09522C16.1457 6.09155 16.1719 6.09155 16.1978 6.09522C16.2868 6.13684 16.3686 6.19236 16.4402 6.2597L21.6341 11.4537C21.7015 11.5252 21.757 11.607 21.7986 11.696V11.7739ZM18.8978 11.1934L16.6557 8.95132V10.3277C16.6557 10.8058 17.0433 11.1934 17.5214 11.1934H18.8978ZM20.1187 20.7161C20.1187 21.1941 19.7311 21.5817 19.253 21.5817H10.5964C10.1183 21.5817 9.73076 21.1941 9.73076 20.7161V8.59683C9.73076 8.11874 10.1183 7.73117 10.5964 7.73117H14.9247V10.3281C14.9247 11.7624 16.0874 12.9251 17.5217 12.9251H20.1187V20.7161ZM14.0586 17.7632L16.9067 14.9065C17.2461 14.5671 17.7965 14.5671 18.1359 14.9065C18.4753 15.246 18.4753 15.7963 18.1359 16.1358L14.6733 19.5984C14.5107 19.7623 14.2895 19.8544 14.0586 19.8544C13.8278 19.8544 13.6066 19.7623 13.444 19.5984L11.7127 17.8671C11.3733 17.5276 11.3733 16.9773 11.7127 16.6378C12.0522 16.2984 12.6025 16.2984 12.9419 16.6378L14.0586 17.7632Z" fill="white"/>
</svg>
